X:14
T:Enkjerrleken (pols)
R:Rorospols
C:Sven Nyhus
Z:2002 Brian Wilson <Brian.Wilson@alumni.brown.edu>
M:3/4
L:1/8
K:D
A
|:  "D"d>f a<b "G"g>a | "D"g<f a2 AB/c/ | "D"d>f a<b "G"g>g | "D"f/d/f e/c/e d>A
|   "D"d>f a<b "G"g>a | "D"g<f a3 f | "A/E"e>c "D"d2 "A/C#"c>A
|[1 "E/B"B<G "A"A2 AB/c/ :|[2 "E/B"B<G "A"A3 A  |
|:  "A"c2 cA cd | "D"e<c d2 f<d | "A"c2 cA "D"d>f | "A"e/f/g ec "D"d>d
|   "A"c2 cA cd | "A"e<f g<e "D"d>e | "D"e>f f<a "G"g>g | "A"e<c "D"d4 :|
